X:12
T:Choice Spirit. WCD3/6.012, The
A: England; London
O:
M:2/4
L:1/8
Z:vmp.Peter Dunk.2011.from a transcription by Paul Dennant
B:John Walsh Jr. The Compleat Country Dancing Master.Vol 6 1756
Q:1/4=120
K:A
Tg|ae fTg|ae fTg|ae cA|BE ETg|ae fg|aA Bc|de/f/ ed|cAA:|
|:TB|BE Ec|Be eTc|BF GA|GE Ee|fd AF|ec Ac|Bd EG|AA,A,:|

